public/img/main-logo.svg

<?xml version="1.0" encoding="UTF-8" standalone="no"?>
<svg width="100%" height="100%" viewBox="0 0 59 50" version="1.1" xmlns="http://www.w3.org/2000/svg" xmlns:xlink="http://www.w3.org/1999/xlink">
    <!-- Generator: Sketch 48.1 (47250) - http://www.bohemiancoding.com/sketch -->
    <title>pgeon-logo-mobile</title>
    <desc>Created with Sketch.</desc>
    <defs></defs>
    <g id="Page-1" stroke="none" stroke-width="1" fill="none" fill-rule="evenodd">
        <g id="pgeon-logo-mobile" fill="#777888" fill-rule="nonzero">
            <path d="M52.8790843,6.02309884 C51.6813485,2.52128742 48.3450101,0 44.4184646,0 C41.606426,0 39.0960394,1.30204174 37.4572327,3.3223499 C36.7563354,4.1965419 36.2109115,5.20480469 35.8779959,6.29586356 C35.759701,6.6690763 35.6692899,7.04901359 35.6071851,7.44282028 L31.4719336,25.0086158 L9.94310818,36.9035111 L1.13182863,41.7767112 L0.822994465,41.9112023 C0.749905121,41.9423033 0.690757674,41.9872738 0.649354462,42.0461136 C0.596966724,42.1150403 0.569082928,42.2011987 0.569082928,42.2982844 C0.569082928,42.5227164 0.756664829,42.7093228 0.982692569,42.7093228 L12.8248562,41.5695109 L14.4598607,41.4140056 L0.222225405,49.2228937 C0.0870312422,49.2989653 0,49.4372389 0,49.5889616 C0,49.8171762 0.187581901,50 0.416567013,50 C0.435156211,50 5.63590665,48.3054124 16.0188183,44.9162373 L19.8241115,43.6688325 C23.656866,46.8188657 28.5732863,48.7185522 33.9371147,48.7185522 C44.8105277,48.7185522 53.8617769,40.9163886 55.7367509,30.6383283 C55.7574525,30.562677 55.7680146,30.482823 55.7747743,30.4038095 C55.9898175,29.1908681 56.1009302,27.9443039 56.1009302,26.6662184 C56.1009302,25.6684627 56.035023,24.6870981 55.9032087,23.7200232 C55.7958983,22.9261056 55.6425375,22.1489993 55.4587579,21.3891247 C55.3307459,20.8570444 55.2158309,20.4186875 55.0907763,19.9799104 C54.5356353,18.1046004 53.0632863,15.155043 52.0945357,13.5008027 L58.7642552,9.80187783 C58.941275,9.68756042 59,9.57702556 59,9.4530416 C59,9.29753629 58.9028292,9.16304521 58.7672126,9.10756764 L52.8790843,6.02309884 Z" id="Fill-9"></path>
        </g>
    </g>
</svg>

<?xml version="1.0" encoding="UTF-8"?>
<svg version="1.1" viewBox="0 0 59 50" xmlns="http://www.w3.org/2000/svg">
<g fill="none" fill-rule="evenodd">
<g fill="#777888" fill-rule="nonzero">
<path d="m52.879 6.0231c-1.1977-3.5018-4.5341-6.0231-8.4606-6.0231-2.812 0-5.3224 1.302-6.9612 3.3223-0.7009 0.87419-1.2463 1.8825-1.5792 2.9735-0.11829 0.37321-0.20871 0.75315-0.27081 1.147l-4.1353 17.566-21.529 11.895-8.8113 4.8732-0.30883 0.13449c-0.073089 0.031101-0.13224 0.076072-0.17364 0.13491-0.052388 0.068927-0.080272 0.15509-0.080272 0.25217 0 0.22443 0.18758 0.41104 0.41361 0.41104l11.842-1.1398 1.635-0.15551-14.238 7.8089c-0.13519 0.076072-0.22223 0.21435-0.22223 0.36607 0 0.22821 0.18758 0.41104 0.41657 0.41104 0.018589 0 5.2193-1.6946 15.602-5.0838l3.8053-1.2474c3.8328 3.15 8.7492 5.0497 14.113 5.0497 10.873 0 19.925-7.8022 21.8-18.08 0.020702-0.075651 0.031264-0.15551 0.038023-0.23452 0.21504-1.2129 0.32616-2.4595 0.32616-3.7376 0-0.99776-0.065907-1.9791-0.19772-2.9462-0.10731-0.79392-0.26067-1.571-0.44445-2.3309-0.12801-0.53208-0.24293-0.97044-0.36798-1.4092-0.55514-1.8753-2.0275-4.8249-2.9962-6.4791l6.6697-3.6989c0.17702-0.11432 0.23574-0.22485 0.23574-0.34884 0-0.15551-0.097171-0.29-0.23279-0.34547l-5.8881-3.0845z"/>
</g>
</g>
</svg>
